assets/img/braze_icons/cursor-box.svg

<svg fill="none" height="24" viewBox="0 0 24 24" width="24" xmlns="http://www.w3.org/2000/svg"><g fill="#801ed7"><path d="m16.2413 2h-8.4826c-.80496-.00001-1.46933-.00002-2.01052.04419-.5621.04593-1.07881.14449-1.56414.39179-.75265.38349-1.36457.99541-1.74806 1.74806-.2473.48533-.34586 1.00204-.39179 1.56414-.04421.54119-.0442 1.20554-.04419 2.01051v8.48261c-.00001.805-.00002 1.4693.04419 2.0105.04593.5621.14449 1.0788.39179 1.5642.38349.7526.99541 1.3645 1.74806 1.748.48533.2473 1.00204.3459 1.56414.3918.54118.0442 1.20554.0442 2.0105.0442h1.74132c.5523 0 1-.4477 1-1s-.4477-1-1-1h-1.7c-.85658 0-1.43887-.0008-1.88896-.0376-.43842-.0358-.66262-.1007-.81902-.1804-.37632-.1917-.68229-.4977-.87403-.874-.07969-.1564-.14462-.3806-.18044-.819-.03677-.4501-.03755-1.0324-.03755-1.889v-8.4c0-.85658.00078-1.43887.03755-1.88896.03582-.43842.10075-.66262.18044-.81902.19174-.37632.49771-.68229.87403-.87403.1564-.07969.3806-.14462.81902-.18044.45009-.03677 1.03238-.03755 1.88896-.03755h8.4c.8566 0 1.4389.00078 1.889.03755.4384.03582.6626.10075.819.18044.3763.19174.6823.49771.874.87403.0797.1564.1446.3806.1804.81902.0368.45009.0376 1.03238.0376 1.88896v1.7c0 .5523.4477 1 1 1s1-.4477 1-1v-1.74132c0-.80496 0-1.46932-.0442-2.0105-.0459-.5621-.1445-1.07881-.3918-1.56414-.3835-.75265-.9954-1.36457-1.748-1.74806-.4854-.2473-1.0021-.34586-1.5642-.39179-.5412-.04421-1.2055-.0442-2.0105-.04419z"/><path d="m12.7925 10.5401 8.2941 2.7462c.2474.0818.4929.1631.6856.2466.1753.0759.5245.2387.7456.5972.249.4036.2924.9011.1172 1.3417-.1556.3914-.4714.6122-.6309.7174-.1753.1156-.403.2382-.6324.3617l-3.1335 1.6873-1.6873 3.1335c-.1235.2295-.2461.4571-.3617.6325-.1052.1595-.326.4752-.7174.6308-.4406.1752-.9382.1318-1.3417-.1171-.3585-.2212-.5213-.5704-.5973-.7457-.0834-.1927-.1647-.4382-.2465-.6855l-2.7462-8.2942c-.071-.2142-.1442-.435-.1878-.6224-.0425-.1825-.1077-.5232.0226-.8877.1513-.4232.4843-.7562.9075-.9075.3645-.1303.7052-.0651.8877-.0226.1874.0436.4082.1168.6224.1878z"/></g></svg>

<svg width="24" height="24" viewBox="0 0 24 24" fill="none" xmlns="http://www.w3.org/2000/svg">
<path d="M16.2413 2H7.7587C6.95374 1.99999 6.28937 1.99998 5.74818 2.04419C5.18608 2.09012 4.66937 2.18868 4.18404 2.43598C3.43139 2.81947 2.81947 3.43139 2.43598 4.18404C2.18868 4.66937 2.09012 5.18608 2.04419 5.74818C1.99998 6.28937 1.99999 6.95372 2 7.75869V16.2413C1.99999 17.0463 1.99998 17.7106 2.04419 18.2518C2.09012 18.8139 2.18868 19.3306 2.43598 19.816C2.81947 20.5686 3.43139 21.1805 4.18404 21.564C4.66937 21.8113 5.18608 21.9099 5.74818 21.9558C6.28936 22 6.95372 22 7.75868 22H9.5C10.0523 22 10.5 21.5523 10.5 21C10.5 20.4477 10.0523 20 9.5 20H7.8C6.94342 20 6.36113 19.9992 5.91104 19.9624C5.47262 19.9266 5.24842 19.8617 5.09202 19.782C4.7157 19.5903 4.40973 19.2843 4.21799 18.908C4.1383 18.7516 4.07337 18.5274 4.03755 18.089C4.00078 17.6389 4 17.0566 4 16.2V7.8C4 6.94342 4.00078 6.36113 4.03755 5.91104C4.07337 5.47262 4.1383 5.24842 4.21799 5.09202C4.40973 4.7157 4.7157 4.40973 5.09202 4.21799C5.24842 4.1383 5.47262 4.07337 5.91104 4.03755C6.36113 4.00078 6.94342 4 7.8 4H16.2C17.0566 4 17.6389 4.00078 18.089 4.03755C18.5274 4.07337 18.7516 4.1383 18.908 4.21799C19.2843 4.40973 19.5903 4.7157 19.782 5.09202C19.8617 5.24842 19.9266 5.47262 19.9624 5.91104C19.9992 6.36113 20 6.94342 20 7.8V9.5C20 10.0523 20.4477 10.5 21 10.5C21.5523 10.5 22 10.0523 22 9.5V7.75868C22 6.95372 22 6.28936 21.9558 5.74818C21.9099 5.18608 21.8113 4.66937 21.564 4.18404C21.1805 3.43139 20.5686 2.81947 19.816 2.43598C19.3306 2.18868 18.8139 2.09012 18.2518 2.04419C17.7106 1.99998 17.0463 1.99999 16.2413 2Z" fill="#801ED7"/>
<path d="M12.7925 10.5401L21.0866 13.2863C21.334 13.3681 21.5795 13.4494 21.7722 13.5329C21.9475 13.6088 22.2967 13.7716 22.5178 14.1301C22.7668 14.5337 22.8102 15.0312 22.635 15.4718C22.4794 15.8632 22.1636 16.084 22.0041 16.1892C21.8288 16.3048 21.6011 16.4274 21.3717 16.5509L18.2382 18.2382L16.5509 21.3717C16.4274 21.6012 16.3048 21.8288 16.1892 22.0042C16.084 22.1637 15.8632 22.4794 15.4718 22.635C15.0312 22.8102 14.5336 22.7668 14.1301 22.5179C13.7716 22.2967 13.6088 21.9475 13.5328 21.7722C13.4494 21.5795 13.3681 21.334 13.2863 21.0867L10.5401 12.7925C10.4691 12.5783 10.3959 12.3575 10.3523 12.1701C10.3098 11.9876 10.2446 11.6469 10.3749 11.2824C10.5262 10.8592 10.8592 10.5262 11.2824 10.3749C11.6469 10.2446 11.9876 10.3098 12.1701 10.3523C12.3575 10.3959 12.5783 10.4691 12.7925 10.5401Z" fill="#801ED7"/>
</svg>
